static/images/flags/flag_es.svg

<svg width="20" height="20" viewBox="0 0 20 20" fill="none" xmlns="http://www.w3.org/2000/svg">
<g clip-path="url(#clip0_2001_1446)">
<path d="M0 5L10 3.75L20 5V15L10 16.25L0 15V5Z" fill="#FFDA44"/>
<path d="M0 0H20V5H0V0ZM0 15H20V20H0V15Z" fill="#D80027"/>
<path d="M5.625 11.875H5V8.75H5.625V11.875ZM10.625 11.875H11.25V8.75H10.625V11.875Z" fill="#EEEEEE"/>
<path d="M8.125 12.8125C9.16053 12.8125 10 12.2529 10 11.5625C10 10.8721 9.16053 10.3125 8.125 10.3125C7.08947 10.3125 6.25 10.8721 6.25 11.5625C6.25 12.2529 7.08947 12.8125 8.125 12.8125Z" fill="#EEEEEE"/>
<path d="M5.625 7.8125C5.625 7.63991 5.48509 7.5 5.3125 7.5C5.13991 7.5 5 7.63991 5 7.8125V8.125C5 8.29759 5.13991 8.4375 5.3125 8.4375C5.48509 8.4375 5.625 8.29759 5.625 8.125V7.8125Z" fill="#D80027"/>
<path d="M11.25 7.8125C11.25 7.63991 11.1101 7.5 10.9375 7.5C10.7649 7.5 10.625 7.63991 10.625 7.8125V8.125C10.625 8.29759 10.7649 8.4375 10.9375 8.4375C11.1101 8.4375 11.25 8.29759 11.25 8.125V7.8125Z" fill="#D80027"/>
<path d="M8.125 10.625V11.5625C8.125 11.8111 8.22377 12.0496 8.39959 12.2254C8.5754 12.4012 8.81386 12.5 9.0625 12.5C9.31114 12.5 9.5496 12.4012 9.72541 12.2254C9.90123 12.0496 10 11.8111 10 11.5625V10.625H9.0625H8.125Z" fill="#D80027"/>
<path d="M5.625 8.125H5C4.82741 8.125 4.6875 8.26491 4.6875 8.4375C4.6875 8.61009 4.82741 8.75 5 8.75H5.625C5.79759 8.75 5.9375 8.61009 5.9375 8.4375C5.9375 8.26491 5.79759 8.125 5.625 8.125Z" fill="#FF9811"/>
<path d="M11.25 8.125H10.625C10.4524 8.125 10.3125 8.26491 10.3125 8.4375C10.3125 8.61009 10.4524 8.75 10.625 8.75H11.25C11.4226 8.75 11.5625 8.61009 11.5625 8.4375C11.5625 8.26491 11.4226 8.125 11.25 8.125Z" fill="#FF9811"/>
<path d="M5.625 11.875H5C4.82741 11.875 4.6875 12.0149 4.6875 12.1875C4.6875 12.3601 4.82741 12.5 5 12.5H5.625C5.79759 12.5 5.9375 12.3601 5.9375 12.1875C5.9375 12.0149 5.79759 11.875 5.625 11.875Z" fill="#FF9811"/>
<path d="M11.25 11.875H10.625C10.4524 11.875 10.3125 12.0149 10.3125 12.1875C10.3125 12.3601 10.4524 12.5 10.625 12.5H11.25C11.4226 12.5 11.5625 12.3601 11.5625 12.1875C11.5625 12.0149 11.4226 11.875 11.25 11.875Z" fill="#FF9811"/>
<path d="M6.25 10.625V11.5625C6.25 11.875 6.40625 12.1094 6.60156 12.3047L6.79688 12.0703L6.99219 12.4609C7.1205 12.4924 7.2545 12.4924 7.38281 12.4609L7.57812 12.0703L7.77344 12.3047C8.00781 12.1094 8.125 11.875 8.125 11.5625V10.625H7.77344L7.57812 10.9375L7.38281 10.625H6.99219L6.79688 10.9375L6.60156 10.625H6.25Z" fill="#FF9811"/>
<path d="M4.76562 9.84375H11.4844H4.76562ZM4.76562 10.7812H5.85938H4.76562ZM10.3906 10.7812H11.4844Z" fill="black"/>
<path d="M4.76562 9.6875C4.72418 9.6875 4.68444 9.70396 4.65514 9.73326C4.62584 9.76257 4.60938 9.80231 4.60938 9.84375C4.60938 9.88519 4.62584 9.92493 4.65514 9.95424C4.68444 9.98354 4.72418 10 4.76562 10H11.4844C11.5258 10 11.5656 9.98354 11.5949 9.95424C11.6242 9.92493 11.6406 9.88519 11.6406 9.84375C11.6406 9.80231 11.6242 9.76257 11.5949 9.73326C11.5656 9.70396 11.5258 9.6875 11.4844 9.6875H4.76562ZM4.76562 10.625C4.72418 10.625 4.68444 10.6415 4.65514 10.6708C4.62584 10.7001 4.60938 10.7398 4.60938 10.7812C4.60938 10.8227 4.62584 10.8624 4.65514 10.8917C4.68444 10.921 4.72418 10.9375 4.76562 10.9375H5.85938C5.90082 10.9375 5.94056 10.921 5.96986 10.8917C5.99916 10.8624 6.01562 10.8227 6.01562 10.7812C6.01562 10.7398 5.99916 10.7001 5.96986 10.6708C5.94056 10.6415 5.90082 10.625 5.85938 10.625H4.76562ZM10.3906 10.625C10.3492 10.625 10.3094 10.6415 10.2801 10.6708C10.2508 10.7001 10.2344 10.7398 10.2344 10.7812C10.2344 10.8227 10.2508 10.8624 10.2801 10.8917C10.3094 10.921 10.3492 10.9375 10.3906 10.9375H11.4844C11.5258 10.9375 11.5656 10.921 11.5949 10.8917C11.6242 10.8624 11.6406 10.8227 11.6406 10.7812C11.6406 10.7398 11.6242 10.7001 11.5949 10.6708C11.5656 10.6415 11.5258 10.625 11.4844 10.625H10.3906Z" fill="#D80027"/>
<path d="M7.65625 6.5625C7.38281 6.5625 7.14844 6.75781 7.07031 6.99219L6.875 6.95312C6.52344 6.95312 6.25 7.22656 6.25 7.57812C6.25 7.92969 6.52344 8.20312 6.875 8.20312C7.14844 8.20312 7.38281 8.04687 7.46094 7.77344C7.57486 7.81453 7.69827 7.82164 7.81617 7.79391C7.93406 7.76617 8.04135 7.70477 8.125 7.61719C8.20865 7.70477 8.31594 7.76617 8.43383 7.79391C8.55173 7.82164 8.67514 7.81453 8.78906 7.77344C8.82697 7.89175 8.89927 7.99609 8.99674 8.07312C9.09422 8.15015 9.21244 8.19638 9.33631 8.20591C9.46018 8.21545 9.58408 8.18785 9.69219 8.12664C9.8003 8.06543 9.88772 7.97339 9.94328 7.86227C9.99884 7.75115 10.02 7.62599 10.0041 7.50277C9.98823 7.37955 9.93597 7.26387 9.85402 7.1705C9.77207 7.07712 9.66415 7.01028 9.54404 6.97852C9.42393 6.94677 9.29708 6.95152 9.17969 6.99219C9.14201 6.89092 9.07873 6.80114 8.99601 6.73162C8.91329 6.6621 8.81396 6.61522 8.70771 6.59555C8.60147 6.57587 8.49193 6.58408 8.3898 6.61936C8.28768 6.65465 8.19644 6.71581 8.125 6.79687C8.00781 6.64062 7.85156 6.5625 7.65625 6.5625ZM7.65625 6.875C7.85156 6.875 7.96875 7.03125 7.96875 7.1875C7.96875 7.38281 7.85156 7.5 7.65625 7.5C7.5 7.5 7.34375 7.38281 7.34375 7.1875C7.34375 7.03125 7.5 6.875 7.65625 6.875ZM8.59375 6.875C8.78906 6.875 8.90625 7.03125 8.90625 7.1875C8.90625 7.38281 8.78906 7.5 8.59375 7.5C8.4375 7.5 8.28125 7.38281 8.28125 7.1875C8.28125 7.03125 8.4375 6.875 8.59375 6.875ZM6.875 7.26562L7.03125 7.30469L7.1875 7.61719C7.1875 7.77344 7.03125 7.89062 6.875 7.89062C6.71875 7.89062 6.5625 7.77344 6.5625 7.57812C6.5625 7.42187 6.71875 7.26562 6.875 7.26562ZM9.375 7.26562C9.57031 7.26562 9.6875 7.42187 9.6875 7.57812C9.6875 7.77344 9.57031 7.89062 9.375 7.89062C9.21875 7.89062 9.0625 7.77344 9.0625 7.61719L9.21875 7.30469L9.375 7.26562Z" fill="#EEEEEE"/>
<path d="M7.8125 6.25H8.4375V7.5H7.8125V6.25Z" fill="#FF9811"/>
<path d="M8.125 8.75H10V10.625H8.125V8.75Z" fill="#EEEEEE"/>
<path d="M9.6875 8.125L9.375 8.4375H6.875L6.5625 8.125C6.5625 7.61719 7.26562 7.1875 8.125 7.1875C8.98438 7.1875 9.6875 7.61719 9.6875 8.125ZM6.25 8.75H8.125V10.625H6.25V8.75Z" fill="#D80027"/>
<path d="M9.45312 9.45312C9.45312 9.23739 9.27824 9.0625 9.0625 9.0625C8.84676 9.0625 8.67188 9.23739 8.67188 9.45312V9.92188C8.67188 10.1376 8.84676 10.3125 9.0625 10.3125C9.27824 10.3125 9.45312 10.1376 9.45312 9.92188V9.45312Z" fill="#D80027"/>
<path d="M6.5625 9.0625V9.375H6.875V10H6.5625V10.3125H7.8125V10H7.5V9.375H7.8125V9.0625H6.5625ZM6.875 8.4375H9.375V8.75H6.875V8.4375Z" fill="#FF9811"/>
<path d="M7.26562 8.125C7.39507 8.125 7.5 8.02007 7.5 7.89062C7.5 7.76118 7.39507 7.65625 7.26562 7.65625C7.13618 7.65625 7.03125 7.76118 7.03125 7.89062C7.03125 8.02007 7.13618 8.125 7.26562 8.125Z" fill="#FFDA44"/>
<path d="M8.125 8.125C8.25444 8.125 8.35938 8.02007 8.35938 7.89062C8.35938 7.76118 8.25444 7.65625 8.125 7.65625C7.99556 7.65625 7.89062 7.76118 7.89062 7.89062C7.89062 8.02007 7.99556 8.125 8.125 8.125Z" fill="#FFDA44"/>
<path d="M8.98438 8.125C9.11382 8.125 9.21875 8.02007 9.21875 7.89062C9.21875 7.76118 9.11382 7.65625 8.98438 7.65625C8.85493 7.65625 8.75 7.76118 8.75 7.89062C8.75 8.02007 8.85493 8.125 8.98438 8.125Z" fill="#FFDA44"/>
<path d="M6.60156 10.625V12.3047C6.71825 12.3857 6.85182 12.4391 6.99219 12.4609V10.625H6.60156ZM7.38281 10.625V12.4609C7.52318 12.4391 7.65675 12.3857 7.77344 12.3047V10.625H7.38281Z" fill="#D80027"/>
<path d="M8.125 11.25C8.47018 11.25 8.75 10.9702 8.75 10.625C8.75 10.2798 8.47018 10 8.125 10C7.77982 10 7.5 10.2798 7.5 10.625C7.5 10.9702 7.77982 11.25 8.125 11.25Z" fill="#338AF3"/>
<path d="M11.25 12.5H10.625C10.4524 12.5 10.3125 12.6399 10.3125 12.8125C10.3125 12.9851 10.4524 13.125 10.625 13.125H11.25C11.4226 13.125 11.5625 12.9851 11.5625 12.8125C11.5625 12.6399 11.4226 12.5 11.25 12.5Z" fill="#338AF3"/>
<path d="M5.625 12.5H5C4.82741 12.5 4.6875 12.6399 4.6875 12.8125C4.6875 12.9851 4.82741 13.125 5 13.125H5.625C5.79759 13.125 5.9375 12.9851 5.9375 12.8125C5.9375 12.6399 5.79759 12.5 5.625 12.5Z" fill="#338AF3"/>
</g>
<defs>
<clipPath id="clip0_2001_1446">
<rect width="20" height="20" rx="10" fill="white"/>
</clipPath>
</defs>
</svg>

<svg xmlns="http://www.w3.org/2000/svg" width="20" height="20" fill="none" xmlns:v="https://vecta.io/nano"><g clip-path="url(#A)"><path d="M0 5L10 3.75L20 5V15L10 16.25L0 15V5Z" fill="#ffda44"/><path d="M0 0h20v5H0V0zm0 15h20v5H0v-5z" fill="#d80027"/><g fill="#eee"><path d="M5.625 11.875H5V8.75h.625v3.125zm5 0h.625V8.75h-.625v3.125zm-2.5.938c1.036 0 1.875-.56 1.875-1.25s-.839-1.25-1.875-1.25-1.875.56-1.875 1.25.839 1.25 1.875 1.25z"/></g><g fill="#d80027"><path d="M5.625 7.813c0-.173-.14-.312-.312-.312S5 7.64 5 7.813v.313c0 .173.14.313.313.313s.313-.14.313-.312v-.312zm5.625 0c0-.173-.14-.312-.312-.312s-.312.14-.312.313v.313c0 .173.14.313.313.313s.313-.14.313-.312v-.312zm-3.125 2.812v.938a.94.94 0 0 0 .938.938.94.94 0 0 0 .938-.937v-.937h-.937-.937z"/></g><g fill="#ff9811"><use href="#B"/><use href="#C"/><path d="M5.625 11.875H5c-.173 0-.312.14-.312.313s.14.313.313.313h.625c.173 0 .313-.14.313-.312s-.14-.312-.312-.312zm5.625 0h-.625c-.173 0-.312.14-.312.313s.14.313.313.313h.625c.173 0 .313-.14.313-.312s-.14-.312-.312-.312zm-5-1.25v.938c0 .313.156.547.352.742l.195-.234.195.391a.82.82 0 0 0 .391 0l.195-.391.195.234c.234-.195.352-.43.352-.742v-.937h-.352l-.195.313-.195-.312h-.391l-.195.313-.195-.312H6.25z"/></g><path d="M4.766 9.844h6.719-6.719zm0 .937h1.094-1.094zm5.625 0h1.094z" fill="#000"/><path d="M4.766 9.688c-.041 0-.081.016-.11.046s-.046.069-.046.11.016.081.046.11.069.046.11.046h6.719c.041 0 .081-.016.111-.046s.046-.069.046-.11-.016-.081-.046-.11-.069-.046-.111-.046H4.766zm0 .938c-.041 0-.081.017-.11.046s-.046.069-.046.11.016.081.046.111.069.046.11.046h1.094c.041 0 .081-.017.11-.046s.046-.069.046-.111-.016-.081-.046-.11-.069-.046-.11-.046H4.766zm5.625 0c-.041 0-.081.017-.111.046s-.046.069-.046.11.016.081.046.111.069.046.111.046h1.094c.041 0 .081-.017.111-.046s.046-.069.046-.111-.016-.081-.046-.11-.069-.046-.111-.046h-1.094z" fill="#d80027"/><path d="M7.656 6.563c-.273 0-.508.195-.586.43l-.195-.039c-.352 0-.625.273-.625.625s.273.625.625.625c.273 0 .508-.156.586-.43.114.041.237.048.355.02s.225-.089.309-.177c.084.088.191.149.309.177s.241.021.355-.02c.038.118.11.223.208.3s.216.123.34.133.248-.018.356-.079.196-.153.251-.264.077-.236.061-.359-.068-.239-.15-.332-.19-.16-.31-.192-.247-.027-.364.014c-.038-.101-.101-.191-.184-.261s-.182-.116-.288-.136-.216-.011-.318.024-.193.096-.265.178c-.117-.156-.273-.234-.469-.234zm0 .313c.195 0 .313.156.313.313 0 .195-.117.313-.312.313-.156 0-.312-.117-.312-.312 0-.156.156-.312.313-.312zm.938 0c.195 0 .313.156.313.313 0 .195-.117.313-.312.313-.156 0-.312-.117-.312-.312 0-.156.156-.312.313-.312zm-1.719.391l.156.039.156.313c0 .156-.156.273-.312.273s-.312-.117-.312-.312c0-.156.156-.312.313-.312zm2.5 0c.195 0 .313.156.313.313 0 .195-.117.313-.312.313-.156 0-.312-.117-.312-.273l.156-.312.156-.039z" fill="#eee"/><path d="M7.813 6.25h.625V7.5h-.625V6.25z" fill="#ff9811"/><path d="M8.125 8.75H10v1.875H8.125V8.75z" fill="#eee"/><g fill="#d80027"><path d="M9.688 8.125l-.312.313h-2.5l-.312-.312c0-.508.703-.937 1.563-.937s1.563.43 1.563.938zM6.25 8.75h1.875v1.875H6.25V8.75zm3.203.703a.391.391 0 1 0-.781 0v.469a.391.391 0 1 0 .781 0v-.469z"/></g><path d="M6.563 9.063v.313h.313V10h-.312v.313h1.25V10H7.5v-.625h.313v-.312h-1.25zm.313-.625h2.5v.313h-2.5v-.312z" fill="#ff9811"/><g fill="#ffda44"><use href="#D"/><path d="M8.125 8.125c.129 0 .234-.105.234-.234s-.105-.234-.234-.234-.234.105-.234.234.105.234.234.234zm.859 0c.129 0 .234-.105.234-.234s-.105-.234-.234-.234-.234.105-.234.234.105.234.234.234z"/></g><path d="M6.602 10.625v1.68c.117.081.25.134.391.156v-1.836h-.391zm.781 0v1.836c.14-.022.274-.075.391-.156v-1.68h-.391z" fill="#d80027"/><g fill="#338af3"><path d="M8.125 11.25c.345 0 .625-.28.625-.625S8.47 10 8.125 10s-.625.28-.625.625.28.625.625.625zm3.125 1.25h-.625c-.173 0-.312.14-.312.313s.14.313.313.313h.625c.173 0 .313-.14.313-.312s-.14-.312-.312-.312zm-5.625 0H5c-.173 0-.312.14-.312.313s.14.313.313.313h.625c.173 0 .313-.14.313-.312s-.14-.312-.312-.312z"/></g></g><defs><clipPath id="A"><rect width="20" height="20" rx="10" fill="#fff"/></clipPath><path id="B" d="M5.625 8.125H5c-.173 0-.312.14-.312.313s.14.313.313.313h.625c.173 0 .313-.14.313-.312s-.14-.312-.312-.312z"/><path id="C" d="M11.25 8.125h-.625c-.173 0-.312.14-.312.313s.14.313.313.313h.625c.173 0 .313-.14.313-.312s-.14-.312-.312-.312z"/><path id="D" d="M7.266 8.125c.129 0 .234-.105.234-.234s-.105-.234-.234-.234-.234.105-.234.234.105.234.234.234z"/></defs></svg>
